resources/icons/20px/inbox-update.svg

<?xml version="1.0" encoding="UTF-8"?>
<svg width="20px" height="20px" viewBox="0 0 20 20" version="1.1" xmlns="http://www.w3.org/2000/svg" xmlns:xlink="http://www.w3.org/1999/xlink">
    <!-- Generator: Sketch 52.6 (67491) - http://www.bohemiancoding.com/sketch -->
    <title>Artboard</title>
    <desc>Created with Sketch.</desc>
    <g id="Artboard" stroke="none" stroke-width="1" fill="none" fill-rule="evenodd">
        <g id="inbox-update" fill="#000000" fill-rule="nonzero">
            <path d="M10.0829584,3 C10.0283988,3.32520847 10,3.65928779 10,4 C10,4.34373754 10.0289054,4.68072387 10.084418,5.00866089 L4.65,5.00866089 L1.98,11.0046636 L5,11.0046636 C5.55,11.0046636 6,11.4543638 6,12.0039973 L6,13.0033311 L14,13.0033311 L14,12.0039973 C14,11.4543638 14.45,11.0046636 15,11.0046636 L18.02,11.0046636 L17.4896372,9.81363105 C18.1481165,9.64541071 18.7630161,9.36826306 19.3140079,9.00251603 L20,10.54497 L20,17.0006662 C20,17.5502998 19.55,18 19,18 L1,18 C0.45,18 0,17.5502998 0,17.0006662 L0,10.54497 L3.08,3.61958694 L3.09,3.59960027 C3.24,3.24983344 3.59,3 4,3 L10.0829584,3 Z M16,8 C13.790861,8 12,6.209139 12,4 C12,1.790861 13.790861,3.55271368e-15 16,3.55271368e-15 C18.209139,3.55271368e-15 20,1.790861 20,4 C20,6.209139 18.209139,8 16,8 Z" id="Shape"></path>
        </g>
    </g>
</svg>

<svg xmlns="http://www.w3.org/2000/svg" viewBox="0 0 20 20">
  <path d="M10.083 3a6 6 0 0 0 .001 2.009H4.65l-2.67 5.996H5c.55 0 1 .45 1 .999v1h8v-1c0-.55.45-1 1-1h3.02l-.53-1.19a6 6 0 0 0 1.824-.811L20 10.545v6.456c0 .55-.45.999-1 .999H1c-.55 0-1-.45-1-1v-6.455L3.08 3.62l.01-.02c.15-.35.5-.6.91-.6zM16 8a4 4 0 1 1 0-8 4 4 0 0 1 0 8"/>
</svg>
